X:014
T:By the Fort How Sad Was I (march)
B:NFID.245a
014by_fort
S:JMcK
L:1/8
M:C
R:march
Q:150
K:D
A>G|FDFG A2FG|Add<e dcAG|F2F>F F2DE/F/|GFE>E E2A>G|
FDFG A2FG|Add<e dcAG|F2F>D GE=CE|D2D>D D2||
zA|d>cde f2 f/a/g/f/|edce d2cA|d>cde fde2|d2d>d d2de|
f>dcA dcAG|F2F>D GE=CE|D>EFA dcAG|F2D>D HD4|]

%%%

